; generated by Slic3r 0.9.5 on 2012-12-10 at 23:01:42

; layer_height = 0.4
; perimeters = 3
; top_solid_layers = 3
; bottom_solid_layers = 3
; fill_density = 0.4
; perimeter_speed = 30
; infill_speed = 60
; travel_speed = 130
; scale = 1
; nozzle_diameter = 0.5
; filament_diameter = 3
; extrusion_multiplier = 1
; perimeters extrusion width = 0.53mm
; infill extrusion width = 0.53mm
; first layer extrusion width = 0.80mm

M104 S200 ; set temperature
G28 ; home all axes
M109 S200 ; wait for temperature to be reached
G90 ; use absolute coordinates
G21 ; set units to millimeters
G92 E0
M82 ; use absolute distances for extrusion
G1 F1800.000 E-1.00000
G92 E0
G1 Z0.400 F7800.000
G1 X83.095 Y83.345
G1 F1800.000 E1.00000
G1 X83.345 Y83.095 F540.000 E1.01472
G1 X83.615 Y82.855 E1.02976
G1 X83.885 Y82.635 E1.04425
G1 X87.395 Y79.945 E1.22834
G1 X87.685 Y79.735 E1.24325
G1 X87.985 Y79.545 E1.25803
G1 X88.295 Y79.365 E1.27295
G1 X88.605 Y79.205 E1.28747
G1 X88.935 Y79.065 E1.30239
G1 X93.025 Y77.375 E1.48661
G1 X93.345 Y77.245 E1.50099
G1 X93.685 Y77.135 E1.51587
G1 X94.025 Y77.045 E1.53051
G1 X94.375 Y76.975 E1.54537
G1 X94.715 Y76.915 E1.55974
G1 X99.105 Y76.335 E1.74407
G1 X99.465 Y76.295 E1.75915
G1 X99.815 Y76.275 E1.77374
G1 X100.175 Y76.275 E1.78873
G1 X100.525 Y76.295 E1.80332
G1 X100.885 Y76.335 E1.81840
G1 X105.275 Y76.915 E2.00273
G1 X105.615 Y76.975 E2.01710
G1 X105.965 Y77.045 E2.03196
G1 X106.305 Y77.135 E2.04660
G1 X106.645 Y77.245 E2.06148
G1 X106.965 Y77.375 E2.07586
G1 X111.055 Y79.065 E2.26008
G1 X111.385 Y79.205 E2.27500
G1 X111.695 Y79.365 E2.28952
G1 X112.005 Y79.545 E2.30444
G1 X112.305 Y79.735 E2.31922
G1 X112.595 Y79.945 E2.33413
G1 X116.105 Y82.635 E2.51822
G1 X116.375 Y82.855 E2.53271
G1 X116.645 Y83.095 E2.54775
G1 X116.895 Y83.345 E2.56247
G1 X117.135 Y83.615 E2.57751
G1 X117.355 Y83.885 E2.59201
G1 X120.045 Y87.395 E2.77609
G1 X120.255 Y87.685 E2.79100
G1 X120.445 Y87.985 E2.80578
G1 X120.625 Y88.295 E2.82070
G1 X120.785 Y88.605 E2.83522
G1 X120.925 Y88.935 E2.85015
G1 X122.615 Y93.025 E3.03436
G1 X122.745 Y93.345 E3.04874
G1 X122.855 Y93.685 E3.06362
G1 X122.945 Y94.025 E3.07826
G1 X123.015 Y94.375 E3.09312
G1 X123.075 Y94.715 E3.10749
G1 X123.655 Y99.105 E3.29182
G1 X123.695 Y99.465 E3.30690
G1 X123.715 Y99.815 E3.32149
G1 X123.715 Y100.175 E3.33648
G1 X123.695 Y100.525 E3.35107
G1 X123.655 Y100.885 E3.36615
G1 X123.075 Y105.275 E3.55048
G1 X123.015 Y105.615 E3.56486
G1 X122.945 Y105.965 E3.57971
G1 X122.855 Y106.305 E3.59436
G1 X122.745 Y106.645 E3.60923
G1 X122.615 Y106.965 E3.62361
G1 X120.925 Y111.055 E3.80783
G1 X120.785 Y111.385 E3.82275
G1 X120.625 Y111.695 E3.83727
G1 X120.445 Y112.005 E3.85219
G1 X120.255 Y112.305 E3.86698
G1 X120.045 Y112.595 E3.88188
G1 X117.355 Y116.105 E4.06597
G1 X117.135 Y116.375 E4.08047
G1 X116.895 Y116.645 E4.09550
G1 X116.645 Y116.895 E4.11022
G1 X116.375 Y117.135 E4.12526
G1 X116.105 Y117.355 E4.13976
G1 X112.595 Y120.045 E4.32384
G1 X112.305 Y120.255 E4.33875
G1 X112.005 Y120.445 E4.35353
G1 X111.695 Y120.625 E4.36845
G1 X111.385 Y120.785 E4.38298
G1 X111.055 Y120.925 E4.39790
G1 X106.965 Y122.615 E4.58212
G1 X106.645 Y122.745 E4.59649
G1 X106.305 Y122.855 E4.61137
G1 X105.965 Y122.945 E4.62601
G1 X105.615 Y123.015 E4.64087
G1 X105.275 Y123.075 E4.65524
G1 X100.885 Y123.655 E4.83957
G1 X100.525 Y123.695 E4.85465
G1 X100.175 Y123.715 E4.86925
G1 X99.815 Y123.715 E4.88423
G1 X99.465 Y123.695 E4.89883
G1 X99.105 Y123.655 E4.91390
G1 X94.715 Y123.075 E5.09824
G1 X94.375 Y123.015 E5.11261
G1 X94.025 Y122.945 E5.12747
G1 X93.685 Y122.855 E5.14211
G1 X93.345 Y122.745 E5.15698
G1 X93.025 Y122.615 E5.17136
G1 X88.935 Y120.925 E5.35558
G1 X88.605 Y120.785 E5.37050
G1 X88.295 Y120.625 E5.38502
G1 X87.985 Y120.445 E5.39995
G1 X87.685 Y120.255 E5.41473
G1 X87.395 Y120.045 E5.42963
G1 X83.885 Y117.355 E5.61372
G1 X83.615 Y117.135 E5.62822
G1 X83.345 Y116.895 E5.64326
G1 X83.095 Y116.645 E5.65797
G1 X82.855 Y116.375 E5.67301
G1 X82.635 Y116.105 E5.68751
G1 X79.945 Y112.595 E5.87160
G1 X79.735 Y112.305 E5.88650
G1 X79.545 Y112.005 E5.90128
G1 X79.365 Y111.695 E5.91621
G1 X79.205 Y111.385 E5.93073
G1 X79.065 Y111.055 E5.94565
G1 X77.375 Y106.965 E6.12987
G1 X77.245 Y106.645 E6.14425
G1 X77.135 Y106.305 E6.15912
G1 X77.045 Y105.965 E6.17376
G1 X76.975 Y105.615 E6.18862
G1 X76.915 Y105.275 E6.20299
G1 X76.335 Y100.885 E6.38733
G1 X76.295 Y100.525 E6.40240
G1 X76.275 Y100.175 E6.41700
G1 X76.275 Y99.815 E6.43198
G1 X76.295 Y99.465 E6.44658
G1 X76.335 Y99.105 E6.46166
G1 X76.915 Y94.715 E6.64599
G1 X76.975 Y94.375 E6.66036
G1 X77.045 Y94.025 E6.67522
G1 X77.135 Y93.685 E6.68986
G1 X77.245 Y93.345 E6.70473
G1 X77.375 Y93.025 E6.71911
G1 X79.065 Y88.935 E6.90333
G1 X79.205 Y88.605 E6.91825
G1 X79.365 Y88.295 E6.93278
G1 X79.545 Y87.985 E6.94770
G1 X79.735 Y87.685 E6.96248
G1 X79.945 Y87.395 E6.97738
G1 X82.635 Y83.885 E7.16147
G1 X82.855 Y83.615 E7.17597
G1 X83.095 Y83.345 E7.19101
G1 F1800.000 E6.19101
G92 E0
G1 X96.013 Y114.878 F7800.000
G1 F1800.000 E1.00000
G1 X92.299 Y113.339 F540.000 E1.16738
G1 X89.109 Y110.891 E1.33476
G1 X86.661 Y107.701 E1.50214
G1 X85.122 Y103.987 E1.66952
G1 X84.597 Y100.000 E1.83690
G1 X85.122 Y96.013 E2.00428
G1 X86.661 Y92.299 E2.17166
G1 X89.109 Y89.109 E2.33904
G1 X92.299 Y86.661 E2.50642
G1 X96.013 Y85.122 E2.67380
G1 X100.000 Y84.597 E2.84118
G1 X103.987 Y85.122 E3.00856
G1 X107.701 Y86.661 E3.17594
G1 X110.891 Y89.109 E3.34333
G1 X113.339 Y92.299 E3.51071
G1 X114.878 Y96.013 E3.67809
G1 X115.403 Y100.000 E3.84547
G1 X114.878 Y103.987 E4.01285
G1 X113.339 Y107.701 E4.18023
G1 X110.891 Y110.891 E4.34761
G1 X107.701 Y113.339 E4.51499
G1 X103.987 Y114.878 E4.68237
G1 X100.000 Y115.403 E4.84975
G1 X96.013 Y114.878 E5.01713
G1 X95.813 Y115.626 F7800.000
G1 X91.911 Y114.010 F540.000 E5.19293
G1 X88.561 Y111.439 E5.36872
G1 X85.990 Y108.089 E5.54452
G1 X84.374 Y104.187 E5.72031
G1 X83.823 Y100.000 E5.89611
G1 X84.374 Y95.813 E6.07191
G1 X85.990 Y91.911 E6.24770
G1 X88.561 Y88.561 E6.42350
G1 X91.911 Y85.990 E6.59930
G1 X95.813 Y84.374 E6.77509
G1 X100.000 Y83.823 E6.95089
G1 X104.187 Y84.374 E7.12668
G1 X108.089 Y85.990 E7.30248
G1 X111.439 Y88.561 E7.47828
G1 X114.010 Y91.911 E7.65407
G1 X115.626 Y95.813 E7.82987
G1 X116.177 Y100.000 E8.00566
G1 X115.626 Y104.187 E8.18146
G1 X114.010 Y108.089 E8.35726
G1 X111.439 Y111.439 E8.53305
G1 X108.089 Y114.010 E8.70885
G1 X104.187 Y115.626 E8.88465
G1 X100.000 Y116.177 E9.06044
G1 X95.813 Y115.626 E9.23624
G1 X95.613 Y116.374 F7800.000
G1 X91.524 Y114.680 F540.000 E9.42045
G1 X88.013 Y111.987 E9.60466
G1 X85.320 Y108.476 E9.78887
G1 X83.626 Y104.387 E9.97309
G1 X83.048 Y100.000 E10.15730
G1 X83.626 Y95.613 E10.34151
G1 X85.320 Y91.524 E10.52572
G1 X88.013 Y88.013 E10.70993
G1 X91.524 Y85.320 E10.89415
G1 X95.613 Y83.626 E11.07836
G1 X100.000 Y83.048 E11.26257
G1 X104.387 Y83.626 E11.44678
G1 X108.476 Y85.320 E11.63099
G1 X111.987 Y88.013 E11.81520
G1 X114.680 Y91.524 E11.99942
G1 X116.374 Y95.613 E12.18363
G1 X116.952 Y100.000 E12.36784
G1 X116.374 Y104.387 E12.55205
G1 X114.680 Y108.476 E12.73626
G1 X111.987 Y111.987 E12.92048
G1 X108.476 Y114.680 E13.10469
G1 X104.387 Y116.374 E13.28890
G1 X100.000 Y116.952 E13.47311
G1 X95.613 Y116.374 E13.65732
G1 X95.002 Y115.905 F7800.000
G1 F1800.000 E12.65732
G92 E0
G1 X89.901 Y110.589 F7800.000
G1 F1800.000 E1.00000
G1 X89.411 Y110.099 F1080.000 E1.02890
G1 F1800.000 E0.02890
G92 E0
G1 X86.816 Y106.414 F7800.000
G1 F1800.000 E1.00000
G1 X93.586 Y113.184 F1080.000 E1.39956
G1 X95.444 Y113.954 E1.48352
G1 X86.046 Y104.556 E2.03821
G1 X85.551 Y102.972 E2.10746
G1 X97.028 Y114.449 E2.78484
G1 X98.282 Y114.614 E2.83762
G1 X85.386 Y101.718 E3.59875
G1 X85.221 Y100.464 E3.65152
G1 X99.536 Y114.779 E4.49639
G1 X100.663 Y114.818 E4.54345
G1 X85.182 Y99.337 E5.45708
G1 X85.309 Y98.375 E5.49758
G1 X101.625 Y114.691 E6.46051
G1 X102.587 Y114.564 E6.50101
G1 X85.436 Y97.413 E7.51326
G1 X85.562 Y96.451 E7.55376
G1 X103.549 Y114.438 E8.61531
G1 X104.415 Y114.215 E8.65263
G1 X85.785 Y95.585 E9.75214
G1 X86.104 Y94.815 E9.78692
G1 X105.185 Y113.896 E10.91305
G1 X105.955 Y113.577 E10.94783
G1 X86.423 Y94.045 E12.10058
G1 X86.742 Y93.275 E12.13536
G1 X106.725 Y113.258 E13.31472
G1 X107.495 Y112.939 E13.34950
G1 X87.061 Y92.505 E14.55548
G1 X87.521 Y91.876 E14.58799
G1 X108.124 Y112.479 E15.80393
G1 X108.740 Y112.006 E15.83634
G1 X87.994 Y91.260 E17.06074
G1 X88.466 Y90.644 E17.09315
G1 X109.356 Y111.534 E18.32601
G1 X109.972 Y111.061 E18.35841
G1 X88.939 Y90.028 E19.59973
G1 X89.412 Y89.412 E19.63214
G1 X110.588 Y110.588 E20.88191
G1 X111.061 Y109.972 E20.91432
G1 X90.028 Y88.939 E22.15564
G1 X90.644 Y88.466 E22.18805
G1 X111.534 Y109.356 E23.42090
G1 X112.006 Y108.740 E23.45331
G1 X91.260 Y87.994 E24.67771
G1 X91.876 Y87.521 E24.71012
G1 X112.479 Y108.124 E25.92606
G1 X112.939 Y107.495 E25.95858
G1 X92.505 Y87.061 E27.16456
G1 X93.275 Y86.742 E27.19933
G1 X113.258 Y106.725 E28.37870
G1 X113.577 Y105.955 E28.41348
G1 X94.045 Y86.423 E29.56623
G1 X94.815 Y86.104 E29.60100
G1 X113.896 Y105.185 E30.72713
G1 X114.215 Y104.415 E30.76191
G1 X95.585 Y85.785 E31.86143
G1 X96.451 Y85.562 E31.89874
G1 X114.438 Y103.549 E32.96030
G1 X114.564 Y102.587 E33.00080
G1 X97.413 Y85.436 E34.01304
G1 X98.375 Y85.309 E34.05354
G1 X114.691 Y101.625 E35.01648
G1 X114.818 Y100.663 E35.05698
G1 X99.337 Y85.182 E35.97060
G1 X100.464 Y85.221 E36.01766
G1 X114.779 Y99.536 E36.86253
G1 X114.614 Y98.282 E36.91531
G1 X101.718 Y85.386 E37.67643
G1 X102.972 Y85.551 E37.72920
G1 X114.449 Y97.028 E38.40658
G1 X113.954 Y95.444 E38.47583
G1 X104.556 Y86.046 E39.03053
G1 X106.414 Y86.816 E39.11449
G1 X113.184 Y93.586 E39.51404
G1 F1800.000 E38.51404
G92 E0
G1 X110.588 Y89.901 F7800.000
G1 F1800.000 E1.00000
G1 X110.099 Y89.411 F1080.000 E1.02888
G1 F1800.000 E0.02888
G92 E0
G1 Z0.800 F7800.000
G1 X108.018 Y86.112
G1 F1800.000 E1.00000
G1 X111.340 Y88.660 F1800.000 E1.12310
G1 X113.888 Y91.982 E1.24620
G1 X115.490 Y95.849 E1.36931
G1 X116.037 Y100.000 E1.49241
G1 X115.490 Y104.151 E1.61551
G1 X113.888 Y108.018 E1.73861
G1 X111.340 Y111.340 E1.86171
G1 X108.018 Y113.888 E1.98482
G1 X104.151 Y115.490 E2.10792
G1 X100.000 Y116.037 E2.23102
G1 X95.849 Y115.490 E2.35412
G1 X91.982 Y113.888 E2.47723
G1 X88.660 Y111.340 E2.60033
G1 X86.112 Y108.018 E2.72343
G1 X84.510 Y104.151 E2.84653
G1 X83.963 Y100.000 E2.96963
G1 X84.510 Y95.849 E3.09274
G1 X86.112 Y91.982 E3.21584
G1 X88.660 Y88.660 E3.33894
G1 X91.982 Y86.112 E3.46204
G1 X95.849 Y84.510 E3.58514
G1 X100.000 Y83.963 E3.70825
G1 X104.151 Y84.510 E3.83135
G1 X108.018 Y86.112 E3.95445
G1 X108.282 Y85.656 F7800.000
G1 X111.712 Y88.288 F1800.000 E4.08160
G1 X114.344 Y91.718 E4.20874
G1 X115.999 Y95.713 E4.33589
G1 X116.563 Y100.000 E4.46303
G1 X115.999 Y104.287 E4.59018
G1 X114.344 Y108.282 E4.71733
G1 X111.712 Y111.712 E4.84447
G1 X108.282 Y114.344 E4.97162
G1 X104.287 Y115.999 E5.09877
G1 X100.000 Y116.563 E5.22591
G1 X95.713 Y115.999 E5.35306
G1 X91.718 Y114.344 E5.48020
G1 X88.288 Y111.712 E5.60735
G1 X85.656 Y108.282 E5.73450
G1 X84.001 Y104.287 E5.86164
G1 X83.437 Y100.000 E5.98879
G1 X84.001 Y95.713 E6.11594
G1 X85.656 Y91.718 E6.24308
G1 X88.288 Y88.288 E6.37023
G1 X91.718 Y85.656 E6.49737
G1 X95.713 Y84.001 E6.62452
G1 X100.000 Y83.437 E6.75167
G1 X104.287 Y84.001 E6.87881
G1 X108.282 Y85.656 E7.00596
G1 X108.590 Y85.234 F7800.000
G1 X112.085 Y87.915 F1800.000 E7.13550
G1 X114.801 Y91.455 E7.26669
G1 X116.508 Y95.577 E7.39788
G1 X116.511 Y95.602 E7.39864
G1 X116.511 Y95.602 E7.39864
G1 X117.090 Y100.000 E7.52907
G1 X116.508 Y104.423 E7.66026
G1 X114.801 Y108.545 E7.79145
G1 X112.085 Y112.085 E7.92264
G1 X108.545 Y114.801 E8.05383
G1 X104.423 Y116.508 E8.18502
G1 X100.000 Y117.090 E8.31621
G1 X95.577 Y116.508 E8.44740
G1 X91.455 Y114.801 E8.57859
G1 X87.915 Y112.085 E8.70978
G1 X85.199 Y108.545 E8.84097
G1 X83.492 Y104.423 E8.97216
G1 X82.910 Y100.000 E9.10335
G1 X83.492 Y95.577 E9.23454
G1 X83.614 Y95.283 E9.24389
G1 X83.614 Y95.283 E9.24389
G1 X85.199 Y91.455 E9.36573
G1 X87.915 Y87.915 E9.49693
G1 X91.455 Y85.199 E9.62812
G1 X95.577 Y83.492 E9.75931
G1 X100.000 Y82.910 E9.89050
G1 X104.423 Y83.492 E10.02169
G1 X104.475 Y83.514 E10.02333
G1 X104.475 Y83.514 E10.02333
G1 X108.525 Y85.191 E10.15222
G1 X108.590 Y85.234 E10.15451
G1 X108.826 Y85.703 F7800.000
G1 F1800.000 E9.15451
G92 E0
G1 X88.866 Y89.200 F7800.000
G1 F1800.000 E1.00000
G1 X89.200 Y88.866 F3600.000 E1.01394
G1 F1800.000 E0.01394
G92 E0
G1 X107.605 Y113.586 F7800.000
G1 F1800.000 E1.00000
G1 X113.586 Y107.605 F3600.000 E1.25018
G1 X114.121 Y106.326 E1.29118
G1 X106.326 Y114.121 E1.61724
G1 X105.057 Y114.647 E1.65788
G1 X114.647 Y105.057 E2.05902
G1 X115.153 Y103.807 E2.09890
G1 X103.807 Y115.153 E2.57347
G1 X102.951 Y115.266 E2.59901
G1 X115.266 Y102.951 E3.11411
G1 X115.378 Y102.094 E3.13966
G1 X102.094 Y115.378 E3.69530
G1 X101.238 Y115.491 E3.72084
G1 X115.491 Y101.238 E4.31701
G1 X115.604 Y100.382 E4.34255
G1 X100.382 Y115.604 E4.97924
G1 X99.597 Y115.645 E5.00248
G1 X115.645 Y99.597 E5.67371
G1 X115.558 Y98.940 E5.69331
G1 X98.940 Y115.558 E6.38840
G1 X98.283 Y115.472 E6.40800
G1 X115.472 Y98.283 E7.12696
G1 X115.385 Y97.626 E7.14656
G1 X97.626 Y115.385 E7.88938
G1 X96.969 Y115.299 E7.90898
G1 X115.299 Y96.969 E8.67566
G1 X115.212 Y96.312 E8.69526
G1 X96.312 Y115.212 E9.48581
G1 X95.688 Y115.093 E9.50461
G1 X115.093 Y95.688 E10.31627
G1 X114.875 Y95.162 E10.33310
G1 X95.162 Y114.875 E11.15765
G1 X94.637 Y114.658 E11.17448
G1 X114.658 Y94.637 E12.01191
G1 X114.440 Y94.111 E12.02874
G1 X94.111 Y114.440 E12.87905
G1 X93.585 Y114.222 E12.89588
G1 X114.222 Y93.585 E13.75908
G1 X114.004 Y93.059 E13.77591
G1 X93.059 Y114.004 E14.65198
G1 X92.534 Y113.786 E14.66881
G1 X113.786 Y92.534 E15.55777
G1 X113.554 Y92.022 E15.57439
G1 X92.022 Y113.554 E16.47504
G1 X91.601 Y113.232 E16.49072
G1 X113.232 Y91.601 E17.39546
G1 X112.909 Y91.181 E17.41115
G1 X91.181 Y112.909 E18.31999
G1 X90.760 Y112.586 E18.33567
G1 X112.586 Y90.760 E19.24860
G1 X112.263 Y90.339 E19.26429
G1 X90.339 Y112.263 E20.18132
G1 X89.918 Y111.940 E20.19701
G1 X111.940 Y89.918 E21.11813
G1 X111.618 Y89.498 E21.13381
G1 X89.498 Y111.618 E22.05903
G1 X89.077 Y111.295 E22.07472
G1 X111.295 Y89.077 E23.00403
G1 X110.923 Y88.705 E23.01957
G1 X88.705 Y110.923 E23.94889
G1 X88.382 Y110.502 E23.96457
G1 X110.502 Y88.382 E24.88979
G1 X110.082 Y88.060 E24.90547
G1 X88.060 Y110.082 E25.82659
G1 X87.737 Y109.661 E25.84228
G1 X109.661 Y87.737 E26.75931
G1 X109.240 Y87.414 E26.77499
G1 X87.414 Y109.240 E27.68793
G1 X87.091 Y108.819 E27.70361
G1 X108.819 Y87.091 E28.61245
G1 X108.399 Y86.768 E28.62814
G1 X86.768 Y108.399 E29.53288
G1 X86.445 Y107.978 E29.54856
G1 X107.978 Y86.445 E30.44922
G1 X107.466 Y86.213 E30.46583
G1 X86.213 Y107.466 E31.35479
G1 X85.996 Y106.941 E31.37162
G1 X106.941 Y85.996 E32.24769
G1 X106.415 Y85.778 E32.26452
G1 X85.778 Y106.415 E33.12772
G1 X85.560 Y105.889 E33.14455
G1 X105.889 Y85.560 E33.99486
G1 X105.363 Y85.342 E34.01169
G1 X85.342 Y105.363 E34.84912
G1 X85.125 Y104.838 E34.86595
G1 X104.838 Y85.125 E35.69049
G1 X104.312 Y84.907 E35.70733
G1 X84.907 Y104.312 E36.51899
G1 X84.788 Y103.688 E36.53779
G1 X103.688 Y84.787 E37.32834
G1 X103.031 Y84.701 E37.34794
G1 X84.701 Y103.031 E38.11462
G1 X84.615 Y102.374 E38.13422
G1 X102.374 Y84.615 E38.87704
G1 X101.717 Y84.528 E38.89664
G1 X84.528 Y101.717 E39.61560
G1 X84.442 Y101.060 E39.63520
G1 X101.060 Y84.442 E40.33029
G1 X100.403 Y84.355 E40.34989
G1 X84.355 Y100.403 E41.02111
G1 X84.396 Y99.618 E41.04435
G1 X99.618 Y84.396 E41.68104
G1 X98.762 Y84.509 E41.70659
G1 X84.509 Y98.762 E42.30275
G1 X84.622 Y97.905 E42.32829
G1 X97.905 Y84.622 E42.88392
G1 X97.049 Y84.734 E42.90947
G1 X84.734 Y97.049 E43.42457
G1 X84.847 Y96.193 E43.45011
G1 X96.193 Y84.847 E43.92468
G1 X94.943 Y85.353 E43.96456
G1 X85.353 Y94.943 E44.36570
G1 X85.879 Y93.674 E44.40634
G1 X93.674 Y85.879 E44.73240
G1 X92.395 Y86.414 E44.77341
G1 X86.414 Y92.395 E45.02357
G1 F1800.000 E44.02357
G92 E0
G1 X111.134 Y110.800 F7800.000
G1 F1800.000 E1.00000
G1 X110.800 Y111.134 F3600.000 E1.01395
